wow64/32x32/apps/gimp.svg

<svg xmlns="http://www.w3.org/2000/svg" width="32" height="32" version="1.1">
 <path style="opacity:0.2;fill-rule:evenodd" d="M 30.003987,3.0233579 C 29.755651,2.9838843 29.532545,3.1240159 29.39842,3.2835684 29.264297,3.4432 29.171234,3.6409631 29.09019,3.8902 28.950029,4.3214895 28.435296,5.9223847 26.579191,7.5046469 24.723088,9.0869908 21.522305,10.857266 15.974781,11.000003 12.601518,11.039474 10.275121,9.5900588 8.9300107,6.9283486 8.5943179,6.2640849 8.000004,5.0261906 8.000004,5.8138485 v 1.2178422 l -0.017129,6.3029223 0.03425,0.08297 c 0,0 0.3021971,0.671289 -0.017122,1.575711 -0.3193228,0.904499 -1.4733834,2.224409 -4.2875465,3.069067 l -0.3440371,0.102237 0.065382,0.36229 c 0.1560936,0.877658 0.7782918,1.777184 1.6968304,2.698105 0.9185383,0.920842 2.1483799,1.8525 3.5804678,2.694789 2.8641754,1.68458 6.5326504,3.01579 10.0969194,3.078001 3.564268,0.06237 7.05158,-1.184053 9.359031,-4.636184 2.307452,-3.452053 3.432785,-9.740611 2.510997,-18.3213232 h -0.0016 C 30.647175,3.8047 30.595216,3.6035422 30.502142,3.4272527 30.409067,3.2510421 30.252326,3.0690684 30.003989,3.0297526 Z"/>
 <path style="fill:#645b44;fill-rule:evenodd" d="M 30.003987,2.0233551 C 29.755651,1.9838815 29.532545,2.1240131 29.39842,2.2835656 29.264297,2.4431972 29.171234,2.6409603 29.09019,2.8901972 28.950029,3.3214867 28.435296,4.9223819 26.579191,6.5046441 24.723088,8.0869876 21.522305,9.8572628 15.974781,9.9999998 12.601518,10.039471 10.275121,8.0902886 8.9300107,5.4285786 8.5943179,4.7643149 8.000004,3.5264206 8.000004,4.3140785 v 1.2178422 l -0.017129,6.8026893 0.03425,0.08297 c 0,0 0.3021971,0.671289 -0.017122,1.575711 C 7.6806802,14.89779 6.5266196,16.2177 3.7124565,17.062358 l -0.3440371,0.102237 0.065382,0.36229 c 0.1560936,0.877658 0.7782918,1.777184 1.6968304,2.698105 0.9185383,0.920842 2.1483799,1.8525 3.5804678,2.694789 2.8641754,1.68458 6.5326504,3.01579 10.0969194,3.078001 3.564268,0.06237 7.05158,-1.184053 9.359031,-4.636184 2.307452,-3.452053 3.432785,-9.740611 2.510997,-18.3213222 h -0.0016 C 30.647175,2.8046972 30.595216,2.6035394 30.502142,2.4272499 30.409067,2.2510393 30.252326,2.0690656 30.003989,2.0297498 Z"/>
 <path style="opacity:0.1;fill:#ffffff;fill-rule:evenodd" d="m 30.003906,2.0234371 c -0.248336,-0.039474 -0.471344,0.1002131 -0.605468,0.2597656 -0.134124,0.1596316 -0.22755,0.358185 -0.308594,0.6074219 -0.140161,0.4312895 -0.653661,2.031019 -2.509766,3.6132812 -1.856103,1.5823438 -5.057945,3.353357 -10.605469,3.496094 C 12.601346,10.039471 10.274798,8.0894436 8.9296875,5.427734 8.5939947,4.7634703 8,3.5267948 8,4.3144527 v 1 C 8,4.5267948 8.5939947,5.7634703 8.9296875,6.427734 10.274798,9.0894448 12.601346,11.039471 15.974609,11 21.522133,10.857263 24.723975,9.0862498 26.580078,7.5039058 28.436183,5.9216436 28.949683,4.3219141 29.089844,3.8906246 29.170884,3.6413877 29.264314,3.4428343 29.398438,3.2832027 29.532562,3.1236502 29.75557,2.9839635 30.003906,3.0234371 v 0.00586 c 0.248337,0.039316 0.404972,0.2222269 0.498047,0.3984375 0.09307,0.1762895 0.144554,0.3777052 0.173828,0.6132812 h 0.002 c 0.20589,1.9165757 0.295371,3.6990563 0.306641,5.3808596 0.03046,-1.9603773 -0.05953,-4.080532 -0.306641,-6.3808596 h -0.002 C 30.646507,2.8054392 30.595027,2.6040235 30.501953,2.427734 30.408878,2.2515234 30.252243,2.0686123 30.003906,2.0292965 Z M 8,5.5312496 7.9824219,12.333984 7.984375,12.339844 8,6.5312496 Z M 8.074219,13.650391 C 8.0514396,13.76412 8.0436202,13.870593 8,13.994141 7.6806772,14.89864 6.5270537,16.217842 3.7128906,17.0625 l -0.34375,0.101562 0.064453,0.363282 c 0.033379,0.187679 0.097528,0.376731 0.171875,0.566406 L 3.7128906,18.0625 C 6.5270537,17.217842 7.6806772,15.89864 8,14.994141 8.2367923,14.323463 8.1442989,13.885996 8.074219,13.650391 Z"/>
 <path style="opacity:0.2;fill-rule:evenodd" d="m 17.999259,10.000003 c -0.989559,0 -1.984089,0.32712 -2.741248,1.00016 C 14.500852,11.673202 14,12.698882 14,14.000723 c 0,1.30184 0.500852,2.32608 1.258011,2.99912 0.757159,0.67304 1.751689,1.00016 2.741248,1.00016 0.989559,0 1.98409,-0.32712 2.741249,-1.00016 C 21.497668,16.326803 22,15.302563 22,14.000723 c 0,-1.301841 -0.502332,-2.327521 -1.259492,-3.00056 -0.757159,-0.67304 -1.75169,-1.00016 -2.741249,-1.00016 z"/>
 <path style="opacity:0.2;fill-rule:evenodd" d="m 10.999259,10.000003 c -0.989559,0 -1.984089,0.32712 -2.741248,1.00016 C 7.500852,11.673202 7,12.698882 7,14.000723 c 0,1.30184 0.500852,2.32608 1.258011,2.99912 0.757159,0.67304 1.751689,1.00016 2.741248,1.00016 0.989559,0 1.98409,-0.32712 2.741249,-1.00016 C 14.497668,16.326803 15,15.302563 15,14.000723 c 0,-1.301841 -0.502332,-2.327521 -1.259492,-3.00056 -0.757159,-0.67304 -1.75169,-1.00016 -2.741249,-1.00016 z"/>
 <path style="fill:#ffffff;fill-rule:evenodd" d="M 10.999259,8.9999996 C 10.0097,8.9999996 9.01517,9.3271198 8.258011,10.00016 7.500852,10.673199 7,11.698879 7,13.00072 7,14.30256 7.500852,15.3268 8.258011,15.99984 9.01517,16.67288 10.0097,17 10.999259,17 c 0.989559,0 1.98409,-0.32712 2.741249,-1.00016 C 14.497668,15.3268 15,14.30256 15,13.00072 15,11.698879 14.497668,10.673199 13.740508,10.00016 12.983349,9.3271198 11.988818,8.9999996 10.999259,8.9999996 Z"/>
 <path style="fill:#3f3f3f;fill-rule:evenodd" d="m 12.000001,12 c -0.490073,0 -0.98551,0.161999 -1.367188,0.50128 C 10.251137,12.84056 10,13.363121 10,14.000001 c 0,0.636881 0.251137,1.15944 0.632813,1.498721 C 11.014491,15.838001 11.509928,16 12.000001,16 c 0.490073,0 0.98551,-0.161999 1.367189,-0.501278 0.381677,-0.339281 0.632811,-0.86184 0.632811,-1.498721 0,-0.63688 -0.251134,-1.159441 -0.632811,-1.498721 C 12.985511,12.161999 12.490074,12 12.000001,12 Z"/>
 <path style="opacity:0.3;fill-rule:evenodd" d="m 10,20.000958 c 1.443724,0 2.75993,0.08588 3.953778,0 1.983235,-0.145295 3.726517,-0.0014 4.607879,-0.805804 C 18.188847,18.626044 18,18.001758 18,18.001758 c 0,0 1.206289,0.543361 1.788818,1.43209 C 20.36968,20.320098 19.152016,20.866098 19,22 18.661581,21.004117 18.882389,20.630602 18.796869,20.234855 18.181804,21.239855 17.122391,21.960656 15.697472,22 14.180743,22.04157 12.249892,20.941504 10,20.002557 Z"/>
 <path style="opacity:0.1;fill-rule:evenodd" d="m 3.9826454,13.000007 c -0.1774894,0 -0.3515443,0.01125 -0.5207339,0.039 -0.451172,0.0735 -0.868902,0.2496 -1.2290438,0.51675 -1.4405666,1.068675 -1.819954,3.49065 -0.040595,6.02685 1.7793597,2.536275 4.1335252,2.929876 5.5740919,1.8612 1.4405667,-1.068676 1.8213547,-3.49065 0.041993,-6.02685 -1.1677033,-1.664401 -2.5832868,-2.405625 -3.8257126,-2.4168 z"/>
 <path style="fill:#3f3f3f;fill-rule:evenodd" d="m 3.9826454,12.000004 c -0.1774894,0 -0.3515443,0.01125 -0.5207339,0.039 -0.451172,0.0735 -0.868902,0.2496 -1.2290438,0.51675 -1.4405666,1.068675 -1.819954,3.49065 -0.040595,6.02685 1.7793597,2.536275 4.1335252,2.929876 5.5740919,1.8612 1.4405667,-1.068676 1.8213547,-3.49065 0.041993,-6.02685 -1.1677033,-1.664401 -2.5832868,-2.405625 -3.8257126,-2.4168 z"/>
 <path style="fill:#ffffff;fill-rule:evenodd" d="m 17.999259,8.9999996 c -0.989559,0 -1.984089,0.3271202 -2.741248,1.0001604 C 14.500852,10.673199 14,11.698879 14,13.00072 c 0,1.30184 0.500852,2.32608 1.258011,2.99912 C 16.01517,16.67288 17.0097,17 17.999259,17 c 0.989559,0 1.98409,-0.32712 2.741249,-1.00016 C 21.497668,15.3268 22,14.30256 22,13.00072 22,11.698879 21.497668,10.673199 20.740508,10.00016 19.983349,9.3271198 18.988818,8.9999996 17.999259,8.9999996 Z"/>
 <path style="fill:#3f3f3f;fill-rule:evenodd" d="m 19.000001,12 c -0.490073,0 -0.98551,0.161999 -1.367188,0.50128 C 17.251137,12.84056 17,13.363121 17,14.000001 c 0,0.636881 0.251137,1.15944 0.632813,1.498721 C 18.014491,15.838001 18.509928,16 19.000001,16 c 0.490073,0 0.98551,-0.161999 1.367189,-0.501278 0.381677,-0.339281 0.632811,-0.86184 0.632811,-1.498721 0,-0.63688 -0.251134,-1.159441 -0.632811,-1.498721 C 19.985511,12.161999 19.490074,12 19.000001,12 Z"/>
 <path style="opacity:0.1;fill:#ffffff;fill-rule:evenodd" d="M 3.9824219,12 C 3.8049325,12 3.6301271,12.01131 3.4609375,12.03906 3.0097655,12.11256 2.5925637,12.289489 2.2324219,12.556639 1.3448623,13.215071 0.8662253,14.38909 1.0410156,15.785156 1.1462661,14.838058 1.5679963,14.04954 2.2324219,13.556641 2.5925637,13.289491 3.0097655,13.112562 3.4609375,13.039062 3.6301271,13.011313 3.8049325,13 3.9824219,13 c 1.2424258,0.01117 2.6584685,0.751615 3.8261719,2.416016 0.6830641,0.9736 1.0417388,1.928988 1.1503906,2.798828 C 9.0823062,17.108502 8.7672691,15.782456 7.8085938,14.416016 6.6408904,12.751615 5.2248477,12.011175 3.9824219,12 Z"/>
 <path style="opacity:0.2" d="M 18.708984,21.533203 18,21.923828 c 0,0 2.964502,2.618857 5.628906,3.91211 -0.03377,0.195005 -0.04695,0.391292 -0.0293,0.626953 l 0.490235,-0.08203 c 0,0 1.699759,0.499159 2.964844,0.88086 -0.16037,0.817595 0.252386,1.798283 1.341796,2.197265 C 30.26374,30.142844 32,31 32,31 c -0.890704,-2.893988 -1.207453,-5.192752 -3.535156,-4.988281 -0.118876,0.01044 -0.229204,0.03185 -0.333985,0.06055 L 25,24.46875 V 24 l -0.337891,0.222656 c -0.0595,0.03257 -0.106796,0.08819 -0.162109,0.128906 -2.466817,-1.492723 -5.791016,-2.818359 -5.791016,-2.818359 z"/>
 <path style="fill:#ff9a0c" d="m 24.977365,25.380254 0.648483,-1.291427 c -2.412459,-1.764955 -6.916207,-3.555931 -6.916207,-3.555931 l -0.709639,0.390105 c 0,0 4.089101,3.626765 6.977363,4.457253 z"/>
 <path style="fill:#8a8a8a" d="m 24.999924,22.999945 -0.338156,0.222383 c -0.313207,0.171438 -0.567312,0.462826 -0.773421,0.799823 -0.235844,0.553996 -0.328977,0.900433 -0.288439,1.441702 l 0.490005,-0.08391 c 0,0 2.558475,0.733985 3.769628,1.120012 l 0.141674,-0.272925 0.498748,-0.965347 -3.500039,-1.793026 z"/>
 <path style="fill:#3f3f3f" d="m 32,30 c -0.890704,-2.893988 -1.206618,-5.191808 -3.534321,-4.987337 -1.875805,0.164776 -2.007129,2.737382 -0.06876,3.447285 C 30.264175,29.143808 31.999998,30 31.999998,30 Z"/>
</svg>

<?xml version="1.0" encoding="UTF-8"?>
<svg xmlns="http://www.w3.org/2000/svg" xmlns:xlink="http://www.w3.org/1999/xlink" width="32px" height="32px" viewBox="0 0 32 32" version="1.1">
<defs>
<linearGradient id="linear0" gradientUnits="userSpaceOnUse" x1="9.3217" y1="2.8009" x2="28.1751" y2="21.6543" >
<stop offset="0" style="stop-color:rgb(63.921569%,60.392157%,51.372549%);stop-opacity:1;"/>
<stop offset="1" style="stop-color:rgb(34.117647%,30.196078%,21.176471%);stop-opacity:1;"/>
</linearGradient>
<linearGradient id="linear1" gradientUnits="userSpaceOnUse" x1="10.5649" y1="12.5649" x2="13.4351" y2="15.4351" >
<stop offset="0" style="stop-color:rgb(20%,20%,20%);stop-opacity:1;"/>
<stop offset="1" style="stop-color:rgb(10.196078%,10.196078%,10.196078%);stop-opacity:1;"/>
</linearGradient>
<linearGradient id="linear2" gradientUnits="userSpaceOnUse" x1="1" y1="16.5" x2="9" y2="16.5" >
<stop offset="0" style="stop-color:rgb(34.117647%,34.117647%,34.117647%);stop-opacity:1;"/>
<stop offset="1" style="stop-color:rgb(10.196078%,10.196078%,10.196078%);stop-opacity:1;"/>
</linearGradient>
<linearGradient id="linear3" gradientUnits="userSpaceOnUse" x1="17.5649" y1="12.5649" x2="20.4351" y2="15.4351" >
<stop offset="0" style="stop-color:rgb(20%,20%,20%);stop-opacity:1;"/>
<stop offset="1" style="stop-color:rgb(10.196078%,10.196078%,10.196078%);stop-opacity:1;"/>
</linearGradient>
</defs>
<g id="surface1">
<path style=" stroke:none;fill-rule:evenodd;fill:url(#linear0);" d="M 30.003906 2.023438 C 29.769531 2 29.542969 2.097656 29.398438 2.285156 C 29.257812 2.464844 29.152344 2.667969 29.089844 2.890625 C 28.617188 4.308594 27.746094 5.5625 26.578125 6.503906 C 24.722656 8.085938 21.523438 9.855469 15.976562 10 C 12.921875 10.027344 10.148438 8.226562 8.929688 5.429688 C 8.59375 4.765625 8 3.527344 8 4.3125 L 8 5.53125 L 7.984375 12.335938 L 8.015625 12.417969 C 8.199219 12.929688 8.195312 13.488281 8 13.992188 C 7.679688 14.898438 6.527344 16.21875 3.710938 17.0625 L 3.367188 17.164062 L 3.433594 17.527344 C 3.722656 18.574219 4.3125 19.511719 5.128906 20.226562 C 6.207031 21.269531 7.410156 22.175781 8.710938 22.921875 C 11.769531 24.769531 15.238281 25.828125 18.808594 25.996094 C 22.53125 26.226562 26.09375 24.460938 28.167969 21.363281 C 30.472656 17.910156 31.601562 11.621094 30.679688 3.039062 L 30.675781 3.039062 C 30.65625 2.828125 30.597656 2.617188 30.503906 2.425781 C 30.410156 2.222656 30.222656 2.074219 30.003906 2.03125 Z M 30.003906 2.023438 "/>
<path style=" stroke:none;fill-rule:evenodd;fill:rgb(100%,100%,100%);fill-opacity:1;" d="M 11 9 C 9.992188 8.988281 9.019531 9.34375 8.257812 10 C 7.421875 10.769531 6.964844 11.863281 7 13 C 6.964844 14.136719 7.421875 15.230469 8.257812 16 C 9.84375 17.332031 12.15625 17.332031 13.742188 16 C 14.578125 15.230469 15.035156 14.136719 15 13 C 15.035156 11.863281 14.578125 10.769531 13.742188 10 C 12.980469 9.34375 12.003906 8.988281 11 9 Z M 11 9 "/>
<path style=" stroke:none;fill-rule:evenodd;fill:url(#linear1);" d="M 12 12 C 11.5 11.996094 11.011719 12.171875 10.632812 12.5 C 10.226562 12.894531 10 13.433594 10 14 C 10 14.566406 10.226562 15.105469 10.632812 15.5 C 11.421875 16.167969 12.578125 16.167969 13.367188 15.5 C 13.773438 15.105469 14 14.566406 14 14 C 14 13.433594 13.773438 12.894531 13.367188 12.5 C 12.988281 12.171875 12.5 11.996094 12 12 Z M 12 12 "/>
<path style=" stroke:none;fill-rule:evenodd;fill:rgb(8.627451%,8.627451%,8.627451%);fill-opacity:1;" d="M 10 20 C 12.695312 19.902344 16.707031 20.417969 18.5625 19.195312 C 18.324219 18.824219 18.136719 18.421875 18 18 C 18.703125 18.328125 19.316406 18.820312 19.789062 19.433594 C 20.371094 20.320312 19.152344 20.867188 19 22 C 18.835938 21.425781 18.765625 20.832031 18.796875 20.234375 C 16.640625 23.457031 13.414062 21.507812 10 20 Z M 10 20 "/>
<path style=" stroke:none;fill-rule:evenodd;fill:url(#linear2);" d="M 3.984375 12 C 3.808594 12 3.632812 12.011719 3.460938 12.039062 C 3.015625 12.109375 2.59375 12.289062 2.234375 12.554688 C 0.792969 13.625 0.414062 16.046875 2.191406 18.582031 C 3.972656 21.117188 6.324219 21.511719 7.765625 20.445312 C 9.207031 19.375 9.585938 16.953125 7.808594 14.417969 C 7 13.039062 5.574219 12.140625 3.984375 12 Z M 3.984375 12 "/>
<path style=" stroke:none;fill-rule:evenodd;fill:rgb(100%,100%,100%);fill-opacity:1;" d="M 18 9 C 16.992188 8.988281 16.019531 9.34375 15.257812 10 C 14.421875 10.769531 13.964844 11.863281 14 13 C 13.964844 14.136719 14.421875 15.230469 15.257812 16 C 16.84375 17.332031 19.15625 17.332031 20.742188 16 C 21.578125 15.230469 22.035156 14.136719 22 13 C 22.035156 11.863281 21.578125 10.769531 20.742188 10 C 19.980469 9.34375 19.003906 8.988281 18 9 Z M 18 9 "/>
<path style=" stroke:none;fill-rule:evenodd;fill:url(#linear3);" d="M 19 12 C 18.5 11.996094 18.011719 12.171875 17.632812 12.5 C 17.226562 12.894531 17 13.433594 17 14 C 17 14.566406 17.226562 15.105469 17.632812 15.5 C 18.421875 16.167969 19.578125 16.167969 20.367188 15.5 C 20.773438 15.105469 21 14.566406 21 14 C 21 13.433594 20.773438 12.894531 20.367188 12.5 C 19.988281 12.171875 19.5 11.996094 19 12 Z M 19 12 "/>
<path style=" stroke:none;fill-rule:nonzero;fill:rgb(100%,67.45098%,21.960784%);fill-opacity:1;" d="M 25.261719 25.117188 L 25.910156 23.828125 C 23.628906 22.371094 21.21875 21.132812 18.707031 20.125 L 18 20.480469 C 18 20.480469 22.371094 24.289062 25.261719 25.117188 Z M 25.261719 25.117188 "/>
<path style=" stroke:none;fill-rule:nonzero;fill:rgb(56.862745%,56.862745%,56.862745%);fill-opacity:1;" d="M 25.28125 22.738281 L 24.945312 22.960938 C 24.621094 23.15625 24.355469 23.429688 24.171875 23.761719 C 23.945312 24.207031 23.84375 24.703125 23.882812 25.203125 L 24.371094 25.117188 C 24.371094 25.117188 26.929688 25.851562 28.140625 26.238281 L 28.285156 25.964844 L 28.78125 25 L 25.28125 23.207031 Z M 25.28125 22.738281 "/>
<path style=" stroke:none;fill-rule:nonzero;fill:rgb(14.117647%,14.117647%,14.117647%);fill-opacity:1;" d="M 32.28125 29.738281 C 31.390625 26.84375 31.074219 24.546875 28.746094 24.75 C 26.871094 24.914062 26.742188 27.488281 28.679688 28.199219 C 30.546875 28.882812 32.28125 29.738281 32.28125 29.738281 Z M 32.28125 29.738281 "/>
</g>
</svg>
